lib/flags/s/800.svg

<svg xmlns="http://www.w3.org/2000/svg" fill="none" viewBox="0 0 16 12"><mask id="800_svg__a" width="16" height="12" x="0" y="0" mask-type="alpha" maskUnits="userSpaceOnUse"><rect width="16" height="12" fill="#fff" rx="-1"/></mask><g mask="url(#800_svg__a)"><path fill="#FECA00" fill-rule="evenodd" d="M0 0V12H16V0H0Z" clip-rule="evenodd"/><mask id="800_svg__b" width="16" height="12" x="0" y="0" mask-type="alpha" maskUnits="userSpaceOnUse"><path fill="#fff" fill-rule="evenodd" d="M0 0V12H16V0H0Z" clip-rule="evenodd"/></mask><g mask="url(#800_svg__b)"><path fill="#272727" d="M0 0H16V2H0z"/><path fill="#D74800" d="M0 4H16V6H0z"/><path fill="#272727" d="M0 6H16V8H0z"/><path fill="#D74800" d="M0 10H16V12H0z"/><path fill="#F7FCFF" fill-rule="evenodd" d="M8 9C9.65685 9 11 7.65685 11 6C11 4.34315 9.65685 3 8 3C6.34315 3 5 4.34315 5 6C5 7.65685 6.34315 9 8 9Z" clip-rule="evenodd"/><path fill="#272727" fill-rule="evenodd" d="M6.83981 4.16432L6.31082 4.33789L6.83981 4.38318C6.83981 4.38318 6.92533 4.59236 6.83981 4.75565C6.8181 4.79711 6.7621 4.85021 6.69062 4.918C6.48051 5.11725 6.13666 5.44333 6.13666 5.97312C6.13666 6.68315 7.50693 7.00509 7.50693 7.00509V7.34243C7.50693 7.34243 7.66598 7.44122 6.75857 7.44122C5.97165 7.44122 6.02087 7.73994 6.04781 7.90347C6.05194 7.92851 6.05554 7.95038 6.05554 7.96752C6.05554 8.09663 6.43376 7.83841 6.61081 7.58132C6.70401 7.44598 7.09429 7.45313 7.49485 7.49025C7.52647 7.49318 7.81853 8.11185 7.56498 8.43145C7.45846 8.56571 7.09062 8.5832 6.86081 8.59413C6.74362 8.5997 6.66233 8.60357 6.66987 8.62034C6.67552 8.63292 6.74483 8.62878 6.84557 8.62277C6.9713 8.61526 7.14599 8.60484 7.30699 8.62034C7.33143 8.62269 7.23667 8.70493 7.14086 8.78809C7.04219 8.87374 6.9424 8.96036 6.97052 8.96168C7.00213 8.96317 7.18692 8.86081 7.35479 8.76781C7.49368 8.69087 7.62099 8.62034 7.64041 8.62034C7.76709 8.62034 7.88148 8.63597 7.98181 8.64968C8.14951 8.67259 8.27793 8.69014 8.35879 8.62034C8.38368 8.59885 8.23933 8.56427 8.09216 8.52901C7.94054 8.49268 7.78591 8.45564 7.81028 8.43145C7.94965 8.29313 7.89143 8.00322 7.84557 7.77489C7.825 7.67246 7.80692 7.58241 7.81028 7.52401C7.82221 7.31662 8.04157 7.42541 8.21398 7.5109C8.28948 7.54834 8.35597 7.58132 8.3921 7.58132C8.71859 7.58132 8.31319 7.16837 8.09067 6.94171C8.07117 6.92185 8.05307 6.90341 8.037 6.88681C7.92384 6.76997 8.00322 6.78567 8.18263 6.82115C8.31955 6.84822 8.51471 6.88681 8.727 6.88681C9.21749 6.88681 9.57548 6.72747 9.45112 6.29601C9.36907 6.01135 8.91985 5.9145 8.45052 5.8133C8.20846 5.76111 7.96104 5.70777 7.7559 5.62691C7.25118 5.42797 7.27692 5.13792 7.29868 4.89267C7.30291 4.84497 7.30699 4.79896 7.30699 4.75565C7.30699 4.48965 7.7559 4.16432 7.7559 4.16432C7.7559 4.16432 7.55103 3.82104 7.21129 3.82104C6.87155 3.82104 6.83981 4.16432 6.83981 4.16432ZM7.76391 7.28824V7.03736C7.76391 7.03736 7.97369 7.03044 8.04726 7.20692C8.12083 7.3834 7.76391 7.28824 7.76391 7.28824Z" clip-rule="evenodd"/><path fill="#D74800" fill-rule="evenodd" d="M6.53848 3.35576L7.04526 3.95673L7.30771 3.895L7.18185 3.28833L6.53848 3.35576Z" clip-rule="evenodd"/><path fill="#FFD018" fill-rule="evenodd" d="M7.19639 3.21038L7.22906 4.11391L7.6618 4.00743L7.84608 3.41567L7.19639 3.21038Z" clip-rule="evenodd"/><path fill="#D74800" fill-rule="evenodd" d="M6.78846 4.71958C6.88405 4.71958 6.96154 4.64403 6.96154 4.55083 6.96154 4.45763 6.88405 4.38208 6.78846 4.38208 6.69288 4.38208 6.61539 4.45763 6.61539 4.55083 6.61539 4.64403 6.69288 4.71958 6.78846 4.71958zM7.88824 3.37963 7.3844 3.98307 7.49077 4.23081 8.06637 4.00151 7.88824 3.37963zM9.05935 7.9466C9.05935 7.9466 9.94557 7.55071 9.94557 6.99706 9.94557 6.44341 8.50656 5.84033 8.50656 5.84033 8.50656 5.84033 7.6601 6.03406 8.04164 6.29331 8.42317 6.55257 8.93433 6.65217 8.93433 6.99706 8.93433 7.34196 9.07437 7.67084 8.79047 7.67084 8.50656 7.67084 9.05935 7.9466 9.05935 7.9466z" clip-rule="evenodd"/><path fill="#FFFDFF" fill-rule="evenodd" d="M7.78076 5.73926C7.78076 5.73926 7.46733 5.79432 7.48221 5.84523C7.52335 5.98596 7.95192 6.16927 8.13871 6.29619C8.52024 6.55544 8.88197 6.52632 9.15107 6.3576C9.42018 6.18889 7.78076 5.73926 7.78076 5.73926Z" clip-rule="evenodd"/></g></g></svg>

<svg xmlns="http://www.w3.org/2000/svg" fill="none" viewBox="0 0 16 12"><mask id="800_svg__a" width="16" height="12" x="0" y="0" maskUnits="userSpaceOnUse"><rect width="16" height="12" fill="#fff" rx="-1"/></mask><g mask="url(#800_svg__a)"><path fill="#FECA00" fill-rule="evenodd" d="M0 0v12h16V0H0z" clip-rule="evenodd"/><mask id="800_svg__b" width="16" height="12" x="0" y="0" maskUnits="userSpaceOnUse"><path fill="#fff" fill-rule="evenodd" d="M0 0v12h16V0H0z" clip-rule="evenodd"/></mask><g mask="url(#800_svg__b)"><path fill="#272727" d="M0 0h16v2H0z"/><path fill="#D74800" d="M0 4h16v2H0z"/><path fill="#272727" d="M0 6h16v2H0z"/><path fill="#D74800" d="M0 10h16v2H0z"/><path fill="#F7FCFF" fill-rule="evenodd" d="M8 9a3 3 0 100-6 3 3 0 000 6z" clip-rule="evenodd"/><path fill="#272727" fill-rule="evenodd" d="M6.84 4.164l-.53.174.53.045s.085.21 0 .373a.86.86 0 01-.15.162c-.21.2-.553.525-.553 1.055 0 .71 1.37 1.032 1.37 1.032v.337s.159.1-.748.1c-.787 0-.738.298-.711.461a.436.436 0 01.008.065c0 .129.378-.13.555-.387.093-.135.483-.128.884-.09.031.002.324.62.07.94-.107.135-.474.152-.704.163-.117.006-.199.01-.191.026.006.013.075.009.176.003.125-.008.3-.018.461-.003.024.003-.07.085-.166.168-.099.086-.199.172-.17.174.031.001.216-.101.384-.194.139-.077.266-.148.285-.148.127 0 .241.016.342.03.168.023.296.04.377-.03.025-.021-.12-.056-.267-.091-.151-.036-.306-.073-.282-.098.14-.138.081-.428.036-.656a1.198 1.198 0 01-.036-.251c.012-.207.232-.099.404-.013.075.037.142.07.178.07.327 0-.079-.413-.301-.64l-.054-.054c-.113-.117-.034-.101.146-.066.137.027.332.066.544.066.49 0 .848-.16.724-.591-.082-.285-.531-.381-1-.483a4.563 4.563 0 01-.695-.186c-.505-.199-.48-.49-.457-.734.004-.048.008-.094.008-.137 0-.266.449-.592.449-.592s-.205-.343-.545-.343c-.34 0-.371.343-.371.343zm.924 3.124v-.25s.21-.008.283.169c.074.176-.283.081-.283.081z" clip-rule="evenodd"/><path fill="#D74800" fill-rule="evenodd" d="M6.538 3.356l.507.6.263-.061-.126-.607-.644.068z" clip-rule="evenodd"/><path fill="#FFD018" fill-rule="evenodd" d="M7.196 3.21l.033.904.433-.107.184-.591-.65-.206z" clip-rule="evenodd"/><path fill="#D74800" fill-rule="evenodd" d="M6.788 4.72a.171.171 0 00.174-.17.171.171 0 00-.174-.168.171.171 0 00-.173.169.17.17 0 00.173.168zm1.1-1.34l-.504.603.107.248.575-.23-.178-.621zM9.06 7.947s.886-.396.886-.95c0-.554-1.44-1.157-1.44-1.157s-.846.194-.464.453c.381.26.892.36.892.704 0 .345.14.674-.144.674-.283 0 .27.276.27.276z" clip-rule="evenodd"/><path fill="#FFFDFF" fill-rule="evenodd" d="M7.78 5.74s-.313.054-.298.105c.041.14.47.324.657.451.381.26.743.23 1.012.061.27-.168-1.37-.618-1.37-.618z" clip-rule="evenodd"/></g></g></svg>
